Simply white circles/scalable/mimes/application-x-trash.svg

<?xml version="1.0" encoding="UTF-8" standalone="no"?>
<!-- Created with Inkscape (http://www.inkscape.org/) -->

<svg
   xmlns:dc="http://purl.org/dc/elements/1.1/"
   xmlns:cc="http://creativecommons.org/ns#"
   xmlns:rdf="http://www.w3.org/1999/02/22-rdf-syntax-ns#"
   xmlns:svg="http://www.w3.org/2000/svg"
   xmlns="http://www.w3.org/2000/svg"
   xmlns:xlink="http://www.w3.org/1999/xlink"
   xmlns:sodipodi="http://sodipodi.sourceforge.net/DTD/sodipodi-0.dtd"
   xmlns:inkscape="http://www.inkscape.org/namespaces/inkscape"
   version="1.1"
   width="48"
   height="48"
   id="svg21744"
   sodipodi:docname="application-x-trash.svg"
   inkscape:version="0.92.3 (2405546, 2018-03-11)">
  <sodipodi:namedview
     pagecolor="#ffffff"
     bordercolor="#666666"
     borderopacity="1"
     objecttolerance="10"
     gridtolerance="10"
     guidetolerance="10"
     inkscape:pageopacity="0"
     inkscape:pageshadow="2"
     inkscape:window-width="1366"
     inkscape:window-height="719"
     id="namedview44"
     showgrid="false"
     inkscape:zoom="7.2920387"
     inkscape:cx="-27.646659"
     inkscape:cy="20.864537"
     inkscape:window-x="0"
     inkscape:window-y="25"
     inkscape:window-maximized="1"
     inkscape:current-layer="svg21744"
     inkscape:snap-global="false"
     showguides="false" />
  <defs
     id="defs21746">
    <linearGradient
       x1="525.4375"
       y1="836.1875"
       x2="516.65625"
       y2="828.5"
       id="linearGradient14113"
       xlink:href="#linearGradient14494-2-7"
       gradientUnits="userSpaceOnUse"
       gradientTransform="translate(-125.5,-1702.64)" />
    <linearGradient
       id="linearGradient14494-2-7">
      <stop
         id="stop14496-9-3"
         style="stop-color:#dc85e9;stop-opacity:1"
         offset="0" />
      <stop
         id="stop14498-9-7"
         style="stop-color:#f2cbf8;stop-opacity:1"
         offset="1" />
    </linearGradient>
    <linearGradient
       x1="520.58502"
       y1="735.05206"
       x2="516.15179"
       y2="720.86298"
       id="linearGradient14115"
       xlink:href="#linearGradient14494-5"
       gradientUnits="userSpaceOnUse" />
    <linearGradient
       id="linearGradient14494-5">
      <stop
         id="stop14496-5"
         style="stop-color:#dc85e9;stop-opacity:1"
         offset="0" />
      <stop
         id="stop14498-1"
         style="stop-color:#f2cbf8;stop-opacity:1"
         offset="1" />
    </linearGradient>
    <linearGradient
       x1="525.4375"
       y1="836.1875"
       x2="516.65625"
       y2="828.5"
       id="linearGradient54948"
       xlink:href="#linearGradient14494-2-7"
       gradientUnits="userSpaceOnUse"
       gradientTransform="translate(-462.50049,-802.00385)" />
    <linearGradient
       x1="520.58502"
       y1="735.05206"
       x2="516.15179"
       y2="720.86298"
       id="linearGradient14109"
       xlink:href="#linearGradient14494-5"
       gradientUnits="userSpaceOnUse"
       gradientTransform="matrix(0.512535,0,0,0.615385,-202.35949,-422.92385)" />
    <linearGradient
       x1="525.4375"
       y1="836.1875"
       x2="516.65625"
       y2="828.5"
       id="linearGradient54952"
       xlink:href="#linearGradient14494-2-7"
       gradientUnits="userSpaceOnUse"
       gradientTransform="translate(-462.50049,-797.50385)" />
    <linearGradient
       x1="209.0625"
       y1="-765.46082"
       x2="209.0625"
       y2="-781.62268"
       id="linearGradient44039"
       xlink:href="#linearGradient15606-1"
       gradientUnits="userSpaceOnUse"
       gradientTransform="matrix(1.5,0,0,1.5,-364.99949,1176.9562)" />
    <linearGradient
       id="linearGradient15606-1">
      <stop
         id="stop15608-0"
         style="stop-color:#ffffff;stop-opacity:0.58823502"
         offset="0" />
      <stop
         id="stop15610-5"
         style="stop-color:#ffffff;stop-opacity:0.86274499"
         offset="1" />
    </linearGradient>
    <linearGradient
       x1="294.3429"
       y1="256.58133"
       x2="294.41818"
       y2="243.13852"
       id="linearGradient44042"
       xlink:href="#linearGradient10286-3"
       gradientUnits="userSpaceOnUse"
       gradientTransform="matrix(2.99213,0,0,3.00466,-830.71149,-727.44385)" />
    <linearGradient
       id="linearGradient10286-3">
      <stop
         id="stop10288-8"
         style="stop-color:#b3b3b3;stop-opacity:1"
         offset="0" />
      <stop
         id="stop10290-7"
         style="stop-color:#e6e6e6;stop-opacity:1"
         offset="1" />
    </linearGradient>
    <linearGradient
       x1="110.96875"
       y1="976.29968"
       x2="110.96875"
       y2="992.375"
       id="linearGradient43236"
       xlink:href="#linearGradient4145-42"
       gradientUnits="userSpaceOnUse" />
    <linearGradient
       id="linearGradient4145-42">
      <stop
         id="stop4953"
         style="stop-color:#e694bb;stop-opacity:1"
         offset="0" />
      <stop
         id="stop4955"
         style="stop-color:#d3819a;stop-opacity:1"
         offset="0.26238" />
      <stop
         id="stop4957"
         style="stop-color:#b25a64;stop-opacity:1"
         offset="0.704952" />
      <stop
         id="stop4959"
         style="stop-color:#98313d;stop-opacity:1"
         offset="1" />
    </linearGradient>
    <linearGradient
       x1="110.96875"
       y1="976.29968"
       x2="110.99982"
       y2="991.87488"
       id="linearGradient14097-7"
       xlink:href="#linearGradient4145-42"
       gradientUnits="userSpaceOnUse"
       gradientTransform="matrix(1,0,0,1.00011,0,-0.10551)" />
    <linearGradient
       x1="110.96875"
       y1="976.29968"
       x2="110.96875"
       y2="992.375"
       id="linearGradient21742"
       xlink:href="#linearGradient4145-42"
       gradientUnits="userSpaceOnUse"
       gradientTransform="matrix(1.00399,0,0,1.00959,-1.1658,-9.36636)" />
    <clipPath
       clipPathUnits="userSpaceOnUse"
       id="clipPath867">
      <g
         inkscape:label="Clip"
         id="use869">
        <path
           d="m 47.000614,3.0210706 v 0.75 40.5000404 0.72723 h 0.75 32.499399 0.75 v -0.72723 -25.50003 -0.3282 l -0.2344,-0.2343 -14.9059,-15.0000104 -0.1875,-0.1875 h -0.3282 -17.593399 z"
           id="path875"
           style="color:#000000;font-style:normal;font-variant:normal;font-weight:normal;font-stretch:normal;font-size:medium;line-height:normal;font-family:'Andale Mono';text-indent:0pt;text-align:start;text-decoration:none;text-decoration-line:none;letter-spacing:normal;word-spacing:normal;text-transform:none;direction:ltr;text-anchor:start;display:inline;overflow:visible;visibility:visible;fill:#000000;fill-opacity:1;fill-rule:nonzero;stroke:none;stroke-width:1;marker:none"
           inkscape:connector-curvature="0" />
      </g>
    </clipPath>
  </defs>
  <metadata
     id="metadata21749">
    <rdf:RDF>
      <cc:Work
         rdf:about="">
        <dc:format>image/svg+xml</dc:format>
        <dc:type
           rdf:resource="http://purl.org/dc/dcmitype/StillImage" />
        <dc:title></dc:title>
      </cc:Work>
    </rdf:RDF>
  </metadata>
  <path
     style="color:#000000;font-style:normal;font-variant:normal;font-weight:normal;font-stretch:normal;font-size:medium;line-height:normal;font-family:'Andale Mono';text-indent:0pt;text-align:start;text-decoration:none;text-decoration-line:none;letter-spacing:normal;word-spacing:normal;text-transform:none;direction:ltr;text-anchor:start;display:inline;overflow:visible;visibility:visible;fill:#e6e6e6;fill-opacity:1;stroke:none;stroke-width:5.99873972;marker:none"
     d="M 29.705078 -0.083984375 C 27.658234 -0.075805254 25.583576 0.00449542 25.1875 0.013671875 L 7 0.013671875 C 6.813106 -0.004321175 6.624454 -0.004321175 6.4375 0.013671875 C 5.062346 0.27607036 3.975341 1.6123101 4 3.0117188 L 4 45 C 4.00015 46.570313 5.429312 47.99985 7 48 L 41 48 C 42.570687 47.99985 43.99985 46.570313 44 45 L 44 18.818359 C 44.018 18.026395 44.215294 8.8914456 43.664062 8.3222656 L 34.054688 0.24804688 C 33.770027 -0.027426575 31.751922 -0.092163496 29.705078 -0.083984375 z M 31.195312 3.0097656 L 31.328125 10.513672 C 31.340155 11.195372 31.966379 11.80479 32.644531 11.792969 L 40.416016 11.65625 C 40.548988 11.674363 40.684161 11.672765 40.816406 11.650391 L 40.898438 14.679688 L 41 18.771484 L 41 44.271484 L 41 44.998047 L 40.25 44.998047 L 7.75 44.998047 L 7 44.998047 L 7 44.271484 L 7 3.7714844 L 7 3.0214844 L 7.75 3.0214844 L 25.34375 3.0214844 L 25.671875 3.0214844 L 31.195312 3.0097656 z M 28.0625 18.089844 C 25.717363 18.100714 23.371292 18.110817 21.023438 18.123047 C 21.952797 18.087717 22.817331 18.928653 23.654297 20.171875 C 24.398871 21.450423 25.10164 22.775034 25.708984 24.189453 L 23.246094 25.607422 L 30.390625 26.291016 L 33.396484 19.763672 L 30.910156 21.193359 C 30.233517 19.818342 29.37094 18.675449 28.0625 18.089844 z M 20.650391 18.591797 C 20.320224 18.658374 20.051463 18.802137 19.847656 19.019531 C 18.198179 20.637757 17.188783 22.255585 16.361328 23.871094 C 17.910259 24.759691 19.459475 25.650465 21.009766 26.539062 L 24.183594 22.089844 C 23.888754 21.527337 23.579828 20.9702 23.257812 20.419922 C 22.848841 19.812578 22.061916 18.739387 21.248047 18.603516 L 21 18.591797 L 20.650391 18.591797 z M 33.490234 26.25 C 31.956248 27.165772 30.420705 28.078963 28.886719 28.996094 L 29.115234 29.486328 L 29.142578 29.447266 L 29.142578 29.544922 L 30.978516 33.451172 C 31.720373 33.478342 32.463816 33.480806 33.207031 33.472656 C 33.976062 33.408796 35.407264 33.23311 35.851562 32.498047 C 35.869222 32.472227 35.879581 32.447695 35.894531 32.421875 L 36.074219 32.097656 C 36.074219 31.952274 36.055199 31.804605 36.011719 31.666016 C 35.40981 29.43637 34.492964 27.764964 33.490234 26.25 z M 18.058594 27.019531 L 10.988281 28.314453 L 13.589844 29.523438 C 12.853422 30.871281 12.417116 32.23181 12.6875 33.636719 C 14.046212 35.552503 15.404195 37.465839 16.765625 39.378906 C 16.203118 38.638408 16.396308 37.447707 16.931641 36.046875 C 17.548496 34.705826 18.226892 33.368562 19.03125 32.054688 L 21.609375 33.255859 L 18.058594 27.019531 z M 28.689453 30.916016 L 24.595703 36.808594 L 28.8125 42.630859 L 28.783203 39.763672 C 30.311754 39.849272 31.731814 39.653883 32.886719 38.804688 C 34.026678 36.751674 35.167276 34.701282 36.308594 32.652344 C 35.877882 33.478441 34.719788 33.818527 33.226562 33.939453 C 31.746925 33.965273 30.250019 33.920098 28.71875 33.759766 L 28.689453 30.916016 z M 18.277344 34.347656 C 17.956688 34.96587 17.653451 35.591874 17.361328 36.230469 C 17.08415 36.953304 16.626183 38.319709 17.097656 39.037109 C 17.113956 39.062929 17.130777 39.084915 17.148438 39.109375 L 17.371094 39.419922 C 17.558596 39.553076 17.761291 39.628311 17.974609 39.658203 C 20.247734 40.080762 22.150284 39.972066 23.949219 39.720703 C 23.784815 37.942148 23.618888 36.161367 23.453125 34.382812 L 18.277344 34.347656 z "
     id="path14075" />
</svg>

<svg xmlns="http://www.w3.org/2000/svg" width="48" height="48"><defs><linearGradient id="a"><stop offset="0" stop-color="#dc85e9"/><stop offset="1" stop-color="#f2cbf8"/></linearGradient><linearGradient id="b"><stop offset="0" stop-color="#dc85e9"/><stop offset="1" stop-color="#f2cbf8"/></linearGradient><linearGradient id="c"><stop offset="0" stop-color="#fff" stop-opacity=".588"/><stop offset="1" stop-color="#fff" stop-opacity=".863"/></linearGradient><linearGradient id="d"><stop offset="0" stop-color="#b3b3b3"/><stop offset="1" stop-color="#e6e6e6"/></linearGradient><linearGradient id="e"><stop offset="0" stop-color="#e694bb"/><stop offset=".262" stop-color="#d3819a"/><stop offset=".705" stop-color="#b25a64"/><stop offset="1" stop-color="#98313d"/></linearGradient></defs><path style="line-height:normal;text-indent:0;text-align:start;text-decoration-line:none;text-transform:none;marker:none" d="M29.705-.084c-2.047.008-4.121.088-4.517.098H7a2.938 2.938 0 0 0-.563 0C5.063.276 3.975 1.612 4 3.012V45c0 1.57 1.43 3 3 3h34c1.57 0 3-1.43 3-3V18.818c.018-.792.215-9.927-.336-10.496L34.054.248c-.284-.275-2.302-.34-4.349-.332zm1.49 3.094l.133 7.504c.012.681.638 1.29 1.317 1.279l7.771-.137c.133.018.268.017.4-.006l.082 3.03L41 18.77v26.227H7V3.021h18.672l5.523-.011zm-3.133 15.08c-2.345.01-4.69.02-7.039.033.93-.035 1.794.806 2.631 2.049.745 1.278 1.448 2.603 2.055 4.017l-2.463 1.418 7.145.684 3.005-6.527-2.486 1.43c-.676-1.376-1.54-2.519-2.848-3.104zm-7.412.502c-.33.066-.599.21-.802.428-1.65 1.618-2.66 3.236-3.487 4.851 1.55.889 3.098 1.78 4.649 2.668l3.174-4.45a40.926 40.926 0 0 0-.926-1.67c-.41-.606-1.196-1.68-2.01-1.815L21 18.592h-.35zm12.84 7.658c-1.534.916-3.07 1.829-4.603 2.746l.228.49.028-.039v.098l1.836 3.906c.741.027 1.485.03 2.228.022.77-.064 2.2-.24 2.645-.975.017-.026.028-.05.043-.076l.18-.324a1.45 1.45 0 0 0-.063-.432c-.602-2.23-1.519-3.901-2.522-5.416zm-15.431.77l-7.07 1.294 2.6 1.21c-.736 1.347-1.172 2.708-.902 4.113 1.36 1.916 2.717 3.829 4.079 5.742-.563-.74-.37-1.931.166-3.332.616-1.341 1.295-2.678 2.1-3.992l2.577 1.2-3.55-6.235zm10.63 3.896l-4.093 5.893 4.216 5.822-.029-2.867c1.529.085 2.949-.11 4.104-.96 1.14-2.052 2.28-4.103 3.422-6.152-.431.826-1.59 1.167-3.082 1.287-1.48.026-2.977-.019-4.508-.18l-.03-2.843zm-10.412 3.432c-.32.618-.624 1.244-.916 1.882-.277.723-.735 2.09-.263 2.807.016.026.033.048.05.072l.223.31c.188.134.39.21.604.24 2.273.422 4.175.313 5.974.062-.164-1.779-.33-3.56-.496-5.338l-5.176-.035z" color="#000" font-weight="400" font-family="Andale Mono" overflow="visible" fill="#e6e6e6"/></svg>
